X:1
T:Title
%%score { ( 1 5 ) | 2 | 3 | 4 }
L:1/8
Q:1/4=120
M:2/2
K:G
V:1 treble nm="Part_1"
V:5 treble 
V:2 treble 
V:3 alto 
V:4 bass 
V:1
 z2[I:staff +1] D4 C2 B,2 |[I:staff -1] G3 E E4 | D4 G2 B2 | A8 | B4 A2 G2 | G3 z E z x3 | %6
 z2 (D2 G2) F2 A2 | G8 | d4 e2 d2 | d3 B d4 | d4 e2 d2 | d3 B A4 | B4 A2 G2 | %13
 z2[I:staff +1] E3 C C4 |[I:staff -1] (D2 G2) F2 A2 | G8 |] %16
V:2
 x2[K:treble][I:staff -1] B4 A2 G2 |[I:staff +1] E3 C C4 | z4 D2 D2 | D8 | D4 C2 B,2 | E3 x C C4 | %6
 z2 (B,2 D2) D2 D2 | D8 | G4 G2 G2 | G3 G G4 | G4 G2 G2 | A3 D D4 | D4 C2 B,2 | %13
 x2[I:staff -1] G3 E E4 |[I:staff +1] (B,2 D2) D2 D2 | D8 |] %16
V:3
 x2 G4 F2 G2 | c3 G G4 | B4 G2 G2 | F8 | G4 F2 G2 | c3 x G G4 | x2 G2 B2 A2 c2 | B8 | B4 c2 B2 | %9
 B3 d B4 | B4 c2 B2 | A3 G F4 | G4 F2 G2 | x2 c3 G G4 | G2 B2 A2 c2 | B8 |] %16
V:4
 x2 G,4 D,2 E,2 | C,3 C, C,4 | G,,4 B,,2 G,,2 | D,8 | G,4 D,2 E,2 | C,3 x C, C,4 | x2 D,4 D,2 D,2 | %7
 G,,8 | G,4 G,2 G,2 | G,3 G, G,4 | G,4 C,2 G,2 | F,3 G, D,4 | G,4 D,2 E,2 | x2 C,3 C, C,4 | %14
 D,4 !>!D,2 D,2 | G,,8 |] %16
V:5
 x10 | x8 | x8 | x8 | x8 | x5 E4 | x10 | x8 | x8 | x8 | x8 | x8 | x8 | x10 | x8 | x8 |] %16

